X: 38957
T: Swagger
R: jig
M: 6/8
K: Bminor
BBB fed|eee A3|BBB Bdf|eee edc|
BBB fed|eee A3|Bdf edc|BBB B3:|
|:Bdf edc|ddd A3|cAc dAd|eAe f3|
Bdf edc|ddd A3|Bdf edc|BBB B3:|
|:Bff Bee|Bdd cBA|Bff Bee|cAc cde|
Bff Bee|Bdd cBA|Bdf edc|BBB B2 A:|
|:Bfe dcB|Aed cBA|Gec dcB|cAd AeA|
Bfe dcB|Aed cBA|Bdf edc|BBB B3:|

